X:1
T:Luci serene e chiare
T:Luci serene e chiare
T:Raffaello Rontani
T:Source : Le varie Musiche a uno e due voci---Roma---G.B.Robletti---1622. Editor : André Vierendeels (06/05/16).
T:©
T:©
T:©
T:©
C:Raffaello Rontani
Z:©
%%score [ 1 2 ] 3
L:1/8
Q:1/4=120
M:4/4
K:C
V:1 treble-8 nm="Tenor 1" snm="T 1"
V:2 treble-8 nm="Tenor 2" snm="T 2"
V:3 bass nm="BC" snm="BC"
V:1
 e6 dc | B2 A2 ^G4 | ^G4 z4 | f4 e3 d | d3 c c4 | z4 z2 A2 | B3 ^G G2 G2 | z2 cc d4- | d2 cB c4 | %9
w: Lu- ci se-|re- n'e chia-|re,|voi mi fe-|ri- te voi|mà|pro- v'il pet- to|non do- lor|_ nel- la pia-|
 B4 z2 GE | A4 G4 | z8 | z8 | z8 | z8 | z8 | z4 A4 | ^F3 D G3 F | E2 e2 d2 d2 | c4 B4 | z4 z2 dc | %21
w: ga mà di-|let- to,||||||voi|m'in- cen- de- te,|voi mà pro- v'il|co- re,|nel in-|
 B/A/B/c/ BA/B/ ^c2 c2 | f4 e3 d | d4 c4 | z8 | z4 z2 dd | d2 BG G4 | A2 d4 B2- | BA c3 B A2- | %29
w: cen- * * * * dio di- let- to|e non do-|lo- re,||me- ra-|vi- glia d'a- mo-|re, al- ma|_ ch'è tut- ta fo-|
 A2 B2 cd e2- | ed/c/ B>A- B4 | z2 A2 A2 G2 | G3 ^F G2 E2- | E2 DD D4 | C2 e2 f3 e | e3 d d4 | %36
w: * co'e tut- ta san-|* * * * gue, _|si strug- ge|non si duol mo-|* r'e non lan-|gue, si strug- ge|non si duol|
 A2 A3 G G2- | G2 ^F2 G4 | z8 | z8 | e2 e3 d d2- | d2 ^c2 d4 | z2 c4 BB | B4 A4 |] %44
w: mo- r'e non lan-|* * gue,|||si strug- ge non|_ si duol|mo- r'e non|lan- gue.|
V:2
 c6 BA | ^G2 A2 B4 | B4 z2 e2- | e2 d3 c c2- | c2 B2 c2 G2 | A3 ^F F2 F2 | z4 z2 BB | c6 BA | %8
w: Lu- ci se-|re- n'e chia-|re, voi|_ mi fe- ri-|* te voi mà|pro- v'il pet- to|non do-|lor nel- la|
 B6 A2- | A2 G3 E G2- | G2 ^F2 G4 | z2 G4 EE | E6 ^F2 | ^G4 G4 | z2 A4 ^F2- | FD G3 ^F E2- | %16
w: pia- ga|_ mà di- let-|* * to,|dol- ci pa-|ro- l'e|ca- re,|voi m'in-|* cen- de- te voi,|
 E2 e4 ^c2- | cA d3 ^c B2- | B2 c2 c2 B2- | B2 A4 ^G2 | z2 AG ^F/E/F/G/ FE/F/ | ^G2 G2 z2 e2- | %22
w: _ voi m'in-|* cen- de- te, voi|_ mà pro- v'il|_ co- re,|nel in- cen- * * * * dio di-|let- to, e|
 e2 d3 c c2- | c2 B2 c4 | z8 | z8 | z8 | z4 G4 | E3 C F3 E | D4 E2 GG | A4 A/^G/G/^F/ G2 | z8 | %32
w: _ non do- lo-|* * re,||||al-|ma ch'è tut- ta|fo- co'e tut- ta|san- * * * * gue,||
 z8 | z8 | e2 e3 d d2- | d2 ^c2 d4 | z2 A2 _B3 B | A3 G G4 | z2 E4 DD | D4 C4 | z2 e2 f3 e | %41
w: ||si strug- ge non|_ si duol,|si strug- ge|non si duol,|mo- r'e non|lan- gue,|si strug- ge|
 e3 d d2 G2- | G2 ^FF ^G2 A2- | A2 ^G2 A4 |] %44
w: non si duol mo-|* r'e non lan- *|* * gue.|
V:3
 A,,2 B,,2 C,2 D,2 | E,2 F,2 E,4 | E,2 D,2 ^C,4 | D,4 E,2 F,2 | G,4 C,4 |"^6""^#" C,4 D,4- | %6
"^6""^#" D,4 E,4 |"^4" A,,4 G,,4 | G,,4 A,,4 | B,,4 C,4 | D,4 G,,4 | C,8 | A,,8 | %13
"^#" E,,4 E,2 D,2 | ^C,4 D,4 | B,,4 C,4 | A,,4 A,4 | ^F,4 G,4 |"^5 6" E,4 ^F,2 ^G,2 | %19
"^4 #" A,4 E,4 | ^C,4 D,4 |"^#""^#" E,4 A,,4 |"^6" D,4 E,2 F,2 |"^4 3" G,4 C,4 | C,2 B,,2 A,,4 | %25
 A,2 G,2 ^F,4 |"^7 6" G,4 E,4 |"^4 #" D,4 G,4 |"^6" E,4 F,4 |"^5 6""^6" D,4 E,4 | %30
"^7 6""^4 3" F,4 E,4 | ^C,4 D,2 B,,2 | A,,4 E,,4- |"^4 3" E,,2 F,,2 G,,4 | C,4 D,4 |"^#" A,,4 D,4 | %36
"^#""^b" D,4 G,,4 |"^4 3" D,4 G,,4 | E,,6 F,,2 | G,,4 C,4 | C,4 D,4 |"^6" A,,4 D,2 B,,2 | %42
 A,,4 E,,4- | E,,4 A,,4 |] %44

